svg/baby_male_0609m_negative.svg

<svg width="48" height="48" viewBox="0 0 48 48" fill="none" xmlns="http://www.w3.org/2000/svg">
<path fill-rule="evenodd" clip-rule="evenodd" d="M0 0V47.9994H47.9994V0H0ZM20.6537 3.99795C22.9967 3.89495 24.8767 5.55083 20.5547 6.54292C23.4067 5.10664 21.2347 4.48254 19.6928 5.74793C17.9348 7.33951 22.0477 7.15211 22.9257 7.7987C23.2827 7.774 23.6407 7.761 23.9997 7.7597C30.2236 7.7612 35.7296 11.2659 37.6045 16.4218C37.9095 16.3508 38.2215 16.3138 38.5345 16.3118C40.8475 16.3118 42.7225 18.1868 42.7225 20.4997C42.7215 20.8517 42.6755 21.2017 42.5875 21.5427C42.5625 21.5107 42.5365 21.4797 42.5115 21.4487C43.4725 22.6587 43.9974 24.1577 43.9995 25.7027C43.9995 29.4876 40.9315 32.5566 37.1455 32.5566C35.2346 32.5536 33.4116 31.7526 32.1166 30.3476C29.7326 31.7826 26.9007 32.5536 23.9997 32.5566C18.0618 32.5496 12.7488 29.3506 10.6579 24.5227C10.2819 24.6317 9.89168 24.6867 9.49988 24.6877C7.18721 24.6877 5.31243 22.8127 5.31243 20.4997C5.31243 18.1868 7.18721 16.3118 9.49988 16.3118C9.80678 16.3128 10.1129 16.3478 10.4119 16.4158C11.7669 12.7098 15.0458 9.77008 19.2678 8.47649C17.7858 7.9616 16.7258 7.12381 17.7128 5.45503C18.4288 4.45394 19.5898 4.04485 20.6537 3.99795ZM23.9997 9.46078C17.3758 9.46748 11.9449 14.0238 11.7069 19.7727C11.3939 18.8197 10.5039 18.1747 9.49988 18.1737C8.2151 18.1737 7.17361 19.2147 7.17371 20.4996C7.17361 21.7846 8.2151 22.8256 9.49988 22.8256C10.5489 22.8246 11.4669 22.1216 11.7419 21.1086C12.3088 26.6236 17.6258 30.8515 23.9997 30.8545C26.5377 30.8495 29.0116 30.1635 31.0836 28.8905C30.5656 27.9075 30.2936 26.8136 30.2926 25.7026C30.2966 22.2826 32.8206 19.3897 36.2085 18.9217C35.4876 13.5357 30.2416 9.47118 23.9997 9.46068V9.46078ZM20.0177 16.9998C20.8497 16.9998 21.5247 17.6748 21.5247 18.5078C21.5247 19.3398 20.8497 20.0147 20.0177 20.0158C19.1848 20.0147 18.5098 19.3398 18.5098 18.5078C18.5098 17.6748 19.1848 16.9998 20.0177 16.9998ZM28.0176 16.9998C28.8496 16.9998 29.5246 17.6748 29.5246 18.5078C29.5246 19.3398 28.8496 20.0147 28.0176 20.0158C27.1847 20.0147 26.5097 19.3398 26.5097 18.5078C26.5097 17.6748 27.1847 16.9998 28.0176 16.9998ZM38.5345 18.1738C37.9175 18.1758 37.3275 18.4218 36.8925 18.8588C36.8635 18.8618 36.8345 18.8638 36.8065 18.8668C36.9195 18.8588 37.0325 18.8528 37.1455 18.8498C38.4315 18.8508 39.6915 19.2128 40.7805 19.8957C40.5075 18.8798 39.5865 18.1738 38.5345 18.1738ZM37.1455 19.9098C33.9466 19.9098 31.3526 22.5037 31.3536 25.7027C31.3526 28.9026 33.9466 31.4956 37.1455 31.4956C40.3455 31.4956 42.9385 28.9026 42.9385 25.7027C42.9385 22.5037 40.3455 19.9098 37.1455 19.9098ZM37.0605 20.9177C37.6565 20.9007 38.2455 21.0637 38.7475 21.3867C40.1245 22.2707 40.5235 24.1027 39.6405 25.4797C39.2705 26.0547 38.7135 26.4857 38.0635 26.6967L38.5585 28.9546L39.4955 28.2266L38.5075 30.4896L36.7165 28.8336L37.8725 29.1166L37.3745 26.8297C36.7315 26.8807 36.0905 26.7217 35.5466 26.3747C34.1686 25.4907 33.7676 23.6567 34.6516 22.2787C35.1806 21.4557 36.0825 20.9477 37.0605 20.9177ZM37.1455 21.6187C36.3755 21.6187 35.6596 22.0097 35.2436 22.6577C34.5686 23.7087 34.8726 25.1077 35.9236 25.7827C36.9745 26.4577 38.3735 26.1527 39.0485 25.1017C39.7235 24.0497 39.4185 22.6507 38.3665 21.9767C38.0025 21.7427 37.5785 21.6187 37.1455 21.6187ZM19.1718 23.6407C19.4188 23.6177 19.6908 23.8147 19.7578 24.2987C19.9577 25.8727 21.8037 27.0787 24.0177 27.0797C26.3047 27.0327 28.1356 25.9517 29.3066 24.2987C29.1026 26.2777 26.7957 27.8097 24.0177 27.8107C21.2407 27.8077 18.9368 26.2767 18.7338 24.2987C18.7018 23.9047 18.9248 23.6627 19.1718 23.6407ZM3.99995 33.9996H43.9995V43.9995H3.99995V33.9996ZM7.8671 35.0956C7.03901 35.0956 6.40472 35.3696 5.96283 35.9195C5.52443 36.4695 5.30463 37.2765 5.30463 38.3375V39.7355C5.31503 40.7555 5.54003 41.5375 5.97842 42.0835C6.41682 42.6295 7.04871 42.9035 7.8769 42.9035C8.71539 42.9035 9.35208 42.6245 9.78698 42.0675C10.2219 41.5115 10.4389 40.7085 10.4389 39.6575V38.2595C10.4289 37.2395 10.2059 36.4585 9.76748 35.9155C9.32908 35.3696 8.69519 35.0956 7.8671 35.0956ZM24.2969 35.0956C23.4689 35.0956 22.8339 35.3696 22.3929 35.9195C21.9539 36.4695 21.7339 37.2765 21.7339 38.3375V39.7355C21.7449 40.7555 21.9699 41.5375 22.4079 42.0835C22.8469 42.6295 23.4799 42.9035 24.3089 42.9035C25.1469 42.9035 25.7839 42.6245 26.2189 42.0675C26.6539 41.5115 26.8709 40.7085 26.8709 39.6575V38.2595C26.8609 37.2395 26.6359 36.4585 26.1969 35.9155C25.7589 35.3696 25.1249 35.0956 24.2969 35.0956ZM30.3788 35.0956C29.8918 35.0956 29.4518 35.2116 29.0618 35.4446C28.6728 35.6746 28.3678 35.9975 28.1478 36.4155C27.9328 36.8295 27.8259 37.2855 27.8259 37.7825C27.8259 38.5655 28.0278 39.1895 28.4318 39.6515C28.8348 40.1115 29.3728 40.3415 30.0448 40.3415C30.5698 40.3415 31.0288 40.1475 31.4218 39.7615C31.3138 40.9335 30.6048 41.5495 29.2928 41.6085L28.9588 41.6145V42.8725L29.3278 42.8665C30.4828 42.8175 31.3758 42.4325 32.0058 41.7085C32.6358 40.9845 32.9508 39.9885 32.9508 38.7225V38.1635C32.9478 37.5585 32.8388 37.0215 32.6228 36.5525C32.4068 36.0826 32.1048 35.7226 31.7148 35.4726C31.3248 35.2216 30.8798 35.0956 30.3788 35.0956ZM15.305 35.1226C14.536 35.1266 13.858 35.2996 13.273 35.6476C12.692 35.9925 12.247 36.4815 11.9341 37.1145C11.6241 37.7445 11.4691 38.4715 11.4691 39.2965V39.8395C11.4691 40.7685 11.7141 41.5115 12.205 42.0675C12.699 42.6245 13.346 42.9035 14.146 42.9035C14.641 42.9035 15.081 42.7925 15.471 42.5695C15.864 42.3475 16.167 42.0365 16.379 41.6365C16.595 41.2365 16.703 40.7885 16.703 40.2945C16.703 39.5215 16.509 38.8985 16.119 38.4255C15.729 37.9525 15.204 37.7165 14.543 37.7165C13.927 37.7165 13.417 37.9205 13.014 38.3315C13.097 37.7195 13.346 37.2405 13.76 36.8955C14.177 36.5515 14.726 36.3755 15.408 36.3645H15.555V35.1226H15.305ZM34.1928 35.2006V42.7985H35.7598V40.7225L35.6018 37.1425L37.6477 42.7985H38.7247L40.7747 37.1365L40.6187 40.7225V42.7985H42.1887V35.2006H40.1327L38.1907 40.7125L36.2397 35.2006H34.1928ZM30.3668 36.3115C30.6938 36.3115 30.9558 36.4525 31.1498 36.7335C31.3448 37.0155 31.4428 37.4135 31.4428 37.9255V38.5465C31.3528 38.7235 31.2178 38.8745 31.0408 38.9995C30.8668 39.1245 30.6578 39.1875 30.4138 39.1875C30.0698 39.1875 29.8028 39.0545 29.6108 38.7905C29.4228 38.5225 29.3278 38.1815 29.3278 37.7675C29.3278 37.3495 29.4258 37.0045 29.6208 36.7295C29.8158 36.4515 30.0638 36.3115 30.3668 36.3115ZM7.8671 36.3155C8.2324 36.3155 8.49929 36.4605 8.66979 36.7495C8.84379 37.0345 8.93149 37.4925 8.93149 38.1225V39.9295C8.92459 40.5245 8.83919 40.9645 8.67569 41.2535C8.51209 41.5425 8.2457 41.6875 7.8769 41.6875C7.50451 41.6875 7.23291 41.5375 7.06241 41.2375C6.89541 40.9355 6.81241 40.4745 6.81241 39.8545V38.0075C6.82281 37.4265 6.91101 37.0015 7.07801 36.7295C7.24851 36.4555 7.51221 36.3155 7.8671 36.3155ZM24.2969 36.3155C24.6619 36.3155 24.9309 36.4605 25.1019 36.7495C25.2759 37.0345 25.3609 37.4925 25.3609 38.1225V39.9295C25.3539 40.5245 25.2709 40.9645 25.1069 41.2535C24.9439 41.5425 24.6769 41.6875 24.3089 41.6875C23.9359 41.6875 23.6649 41.5375 23.4939 41.2375C23.3269 40.9355 23.2439 40.4745 23.2439 39.8545V38.0075C23.2549 37.4265 23.3429 37.0015 23.5099 36.7295C23.6799 36.4555 23.9419 36.3155 24.2969 36.3155ZM14.084 38.9275C14.425 38.9275 14.697 39.0545 14.898 39.3085C15.1 39.5625 15.201 39.8955 15.201 40.3105C15.201 40.7175 15.1 41.0485 14.898 41.3065C14.7 41.5605 14.439 41.6875 14.115 41.6875C13.757 41.6875 13.478 41.5465 13.279 41.2655C13.081 40.9795 12.982 40.5845 12.982 40.0795V39.6205C13.076 39.4115 13.222 39.2435 13.42 39.1185C13.618 38.9895 13.84 38.9275 14.084 38.9275ZM17.658 38.9375V40.1535H20.5979V38.9375H17.658Z" fill="#333333"/>
</svg>

<?xml version="1.0" encoding="UTF-8" standalone="no"?>
<!-- Created with Inkscape (http://www.inkscape.org/) -->
<svg id="svg8" xmlns:rdf="http://www.w3.org/1999/02/22-rdf-syntax-ns#" xmlns="http://www.w3.org/2000/svg" xmlns:osb="http://www.openswatchbook.org/uri/2009/osb" height="48" width="48" version="1.1" xmlns:cc="http://creativecommons.org/ns#" viewBox="0 0 12.7 12.7" xmlns:dc="http://purl.org/dc/elements/1.1/">
 <title id="title4753">UIO-icon</title>
 <metadata id="metadata5">
  <rdf:RDF>
   <cc:Work rdf:about="">
    <dc:format>image/svg+xml</dc:format>
    <dc:type rdf:resource="http://purl.org/dc/dcmitype/StillImage"/>
    <dc:title>UIO-icon</dc:title>
    <dc:creator>
     <cc:Agent>
      <dc:title>Joaquín Urbano</dc:title>
     </cc:Agent>
    </dc:creator>
    <dc:rights>
     <cc:Agent>
      <dc:title>GPL</dc:title>
     </cc:Agent>
    </dc:rights>
   </cc:Work>
  </rdf:RDF>
 </metadata>
 <g id="layer1" transform="translate(0,-284.3)">
  <path id="rect9282" d="m0 0v48h48v-48h-48zm20.654 3.998c2.343-0.103 4.223 1.5529-0.099 2.545 2.852-1.4363 0.68-2.0604-0.862-0.795-1.758 1.5916 2.355 1.4042 3.233 2.0508 0.357-0.0247 0.715-0.0377 1.074-0.039 6.224 0.0015 11.73 3.5062 13.605 8.6622 0.305-0.071 0.617-0.108 0.93-0.11 2.313 0 4.188 1.875 4.188 4.188-0.001 0.352-0.047 0.702-0.135 1.043-0.025-0.032-0.051-0.063-0.076-0.094 0.961 1.21 1.486 2.709 1.488 4.254 0 3.785-3.068 6.854-6.854 6.854-1.911-0.003-3.734-0.804-5.029-2.209-2.384 1.435-5.216 2.206-8.117 2.209-5.938-0.007-11.251-3.206-13.342-8.034-0.376 0.109-0.7662 0.164-1.158 0.165-2.3127 0-4.1875-1.875-4.1875-4.188s1.8748-4.188 4.1875-4.188c0.3069 0.001 0.613 0.036 0.912 0.104 1.355-3.706 4.634-6.6458 8.856-7.9394-1.482-0.5149-2.542-1.3527-1.555-3.0215 0.716-1.0011 1.877-1.4102 2.941-1.4571zm3.346 5.4629c-6.624 0.0067-12.055 4.5631-12.293 10.312-0.313-0.953-1.203-1.598-2.207-1.599-1.2848 0-2.3263 1.041-2.3262 2.326-0.0001 1.285 1.0414 2.326 2.3262 2.326 1.049-0.001 1.967-0.704 2.242-1.717 0.567 5.515 5.884 9.743 12.258 9.746 2.538-0.005 5.012-0.691 7.084-1.964-0.518-0.983-0.79-2.077-0.791-3.188 0.004-3.42 2.528-6.313 5.916-6.781-0.721-5.386-5.967-9.4506-12.209-9.4611zm-3.982 7.5391c0.832 0 1.507 0.675 1.507 1.508 0 0.832-0.675 1.507-1.507 1.508-0.833-0.001-1.508-0.676-1.508-1.508 0-0.833 0.675-1.508 1.508-1.508zm8 0c0.832 0 1.507 0.675 1.507 1.508 0 0.832-0.675 1.507-1.507 1.508-0.833-0.001-1.508-0.676-1.508-1.508 0-0.833 0.675-1.508 1.508-1.508zm10.517 1.174c-0.617 0.002-1.207 0.248-1.642 0.685-0.029 0.003-0.058 0.005-0.086 0.008 0.113-0.008 0.226-0.014 0.339-0.017 1.286 0.001 2.546 0.363 3.635 1.046-0.273-1.016-1.194-1.722-2.246-1.722zm-1.389 1.736c-3.199 0-5.793 2.594-5.792 5.793-0.001 3.2 2.593 5.793 5.792 5.793 3.2 0 5.793-2.593 5.793-5.793 0-3.199-2.593-5.793-5.793-5.793zm-0.085 1.008c0.596-0.017 1.185 0.146 1.687 0.469 1.377 0.884 1.776 2.716 0.893 4.093-0.37 0.575-0.927 1.006-1.577 1.217l0.495 2.258 0.937-0.728-0.988 2.263-1.791-1.656 1.156 0.283-0.498-2.287c-0.643 0.051-1.284-0.108-1.828-0.455-1.378-0.884-1.779-2.718-0.895-4.096 0.529-0.823 1.431-1.331 2.409-1.361zm0.085 0.701c-0.77 0-1.486 0.391-1.902 1.039-0.675 1.051-0.371 2.45 0.68 3.125s2.45 0.37 3.125-0.681c0.675-1.052 0.37-2.451-0.682-3.125-0.364-0.234-0.788-0.358-1.221-0.358zm-17.974 2.022c0.247-0.023 0.519 0.174 0.586 0.658 0.2 1.574 2.046 2.78 4.26 2.781 2.287-0.047 4.118-1.128 5.289-2.781-0.204 1.979-2.511 3.511-5.289 3.512-2.777-0.003-5.081-1.534-5.284-3.512-0.032-0.394 0.191-0.636 0.438-0.658zm-15.172 10.359h40v10h-40v-10zm3.8672 1.096c-0.8281 0-1.4624 0.274-1.9043 0.824-0.4384 0.55-0.6582 1.357-0.6582 2.418v1.398c0.0104 1.02 0.2354 1.802 0.6738 2.348s1.0703 0.82 1.8985 0.82c0.8385 0 1.4752-0.279 1.9101-0.836 0.4349-0.556 0.6519-1.359 0.6519-2.41v-1.398c-0.01-1.02-0.233-1.801-0.6714-2.344-0.4384-0.546-1.0723-0.82-1.9004-0.82zm16.43 0c-0.828 0-1.463 0.274-1.904 0.824-0.439 0.55-0.659 1.357-0.659 2.418v1.398c0.011 1.02 0.236 1.802 0.674 2.348 0.439 0.546 1.072 0.82 1.901 0.82 0.838 0 1.475-0.279 1.91-0.836 0.435-0.556 0.652-1.359 0.652-2.41v-1.398c-0.01-1.02-0.235-1.801-0.674-2.344-0.438-0.546-1.072-0.82-1.9-0.82zm6.082 0c-0.487 0-0.927 0.116-1.317 0.349-0.389 0.23-0.694 0.553-0.914 0.971-0.215 0.414-0.322 0.87-0.322 1.367 0 0.783 0.202 1.407 0.606 1.869 0.403 0.46 0.941 0.69 1.613 0.69 0.525 0 0.984-0.194 1.377-0.58-0.108 1.172-0.817 1.788-2.129 1.847l-0.334 0.006v1.258l0.369-0.006c1.155-0.049 2.048-0.434 2.678-1.158s0.945-1.72 0.945-2.986v-0.559c-0.003-0.605-0.112-1.142-0.328-1.611-0.216-0.47-0.518-0.83-0.908-1.08-0.39-0.251-0.835-0.377-1.336-0.377zm-15.074 0.027c-0.769 0.004-1.447 0.177-2.032 0.525-0.581 0.345-1.026 0.834-1.339 1.467-0.31 0.63-0.465 1.357-0.465 2.182v0.543c0 0.929 0.245 1.672 0.736 2.228 0.494 0.557 1.141 0.836 1.941 0.836 0.495 0 0.935-0.111 1.325-0.334 0.393-0.222 0.696-0.533 0.908-0.933 0.216-0.4 0.324-0.848 0.324-1.342 0-0.773-0.194-1.396-0.584-1.869s-0.915-0.709-1.576-0.709c-0.616 0-1.126 0.204-1.529 0.615 0.083-0.612 0.332-1.091 0.746-1.436 0.417-0.344 0.966-0.52 1.648-0.531h0.147v-1.242h-0.25zm18.888 0.078v7.598h1.567v-2.076l-0.158-3.58 2.046 5.656h1.077l2.05-5.662-0.156 3.586v2.076h1.57v-7.598h-2.056l-1.942 5.512-1.951-5.512h-2.047zm-3.826 1.111c0.327 0 0.589 0.141 0.783 0.422 0.195 0.282 0.293 0.68 0.293 1.192v0.621c-0.09 0.177-0.225 0.328-0.402 0.453-0.174 0.125-0.383 0.188-0.627 0.188-0.344 0-0.611-0.133-0.803-0.397-0.188-0.268-0.283-0.609-0.283-1.023 0-0.418 0.098-0.763 0.293-1.038 0.195-0.278 0.443-0.418 0.746-0.418zm-22.5 0.004c0.3653 0 0.6322 0.145 0.8027 0.434 0.174 0.285 0.2617 0.743 0.2617 1.373v1.807c-0.0069 0.595-0.0923 1.035-0.2558 1.324-0.1636 0.289-0.43 0.434-0.7988 0.434-0.3724 0-0.644-0.15-0.8145-0.45-0.167-0.302-0.25-0.763-0.25-1.383v-1.847c0.0104-0.581 0.0986-1.006 0.2656-1.278 0.1705-0.274 0.4342-0.414 0.7891-0.414zm16.43 0c0.365 0 0.634 0.145 0.805 0.434 0.174 0.285 0.259 0.743 0.259 1.373v1.807c-0.007 0.595-0.09 1.035-0.254 1.324-0.163 0.289-0.43 0.434-0.798 0.434-0.373 0-0.644-0.15-0.815-0.45-0.167-0.302-0.25-0.763-0.25-1.383v-1.847c0.011-0.581 0.099-1.006 0.266-1.278 0.17-0.274 0.432-0.414 0.787-0.414zm-10.213 2.612c0.341 0 0.613 0.127 0.814 0.381 0.202 0.254 0.303 0.587 0.303 1.002 0 0.407-0.101 0.738-0.303 0.996-0.198 0.254-0.459 0.381-0.783 0.381-0.358 0-0.637-0.141-0.836-0.422-0.198-0.286-0.297-0.681-0.297-1.186v-0.459c0.094-0.209 0.24-0.377 0.438-0.502 0.198-0.129 0.42-0.191 0.664-0.191zm3.574 0.01v1.216h2.94v-1.216h-2.94z" fill-rule="evenodd" transform="matrix(.26458 0 0 .26458 0 284.3)" fill="#333"/>
 </g>
</svg>
